assets/img/braze_icons/umbrella-02.svg

<svg fill="none" height="24" viewBox="0 0 24 24" width="24" xmlns="http://www.w3.org/2000/svg"><path clip-rule="evenodd" d="m2.58329 12.8124c-.06747.0485-.14123.0888-.21982.1195-.13576.053-.27929.0747-.4205.0665-.15077-.0085-.29261-.0504-.41825-.1183-.10255-.0553-.19665-.1293-.27685-.2211-.12327-.1405-.20776-.316-.23677-.5095-.0073-.0485-.01097-.0974-.01109-.1461l-.00001-.0034c0-6.07513 4.92487-11 11-11 6.0751 0 11 4.92513 11 11.0003 0 .0493-.0036.0989-.0109.148-.0287.193-.1125.3679-.2349.5084-.1717.197-.4193.3261-.6972.3417-.1412.0082-.2847-.0135-.4205-.0665-.0786-.0307-.1523-.071-.2198-.1195-.2269-.1581-.4765-.288-.7276-.4024-.4775-.2176-1.0802-.41-1.6892-.41-.6089 0-1.2116.1924-1.6892.41-.2518.1147-.5016.2451-.7292.4035-.2817.2012-.6479.2427-.9674.1091-.4278-.1775-.8673-.33-1.3091-.4683-.4245-.1328-.877-.2581-1.305-.345v7.2909c0 1.9509-1.5304 3.6-3.5 3.6s-3.5-1.6491-3.5-3.6c0-.5523.44772-1 1-1s1 .4477 1 1c0 .9209.70818 1.6 1.5 1.6.7918 0 1.5-.6791 1.5-1.6v-7.2853c-.428.0842-.8805.2066-1.30503.3394-.44179.1383-.88126.2908-1.30908.4683-.31948.1336-.68567.0921-.96735-.1091-.22768-.1584-.47745-.2888-.72925-.4035-.47758-.2176-1.08028-.41-1.68922-.41-.60893 0-1.21163.1924-1.68921.41-.2511.1144-.50061.2443-.72757.4024z" fill="#801ed7" fill-rule="evenodd"/></svg>

<svg width="24" height="24" viewBox="0 0 24 24" fill="none" xmlns="http://www.w3.org/2000/svg">
<path fill-rule="evenodd" clip-rule="evenodd" d="M2.58329 12.8124C2.51582 12.8609 2.44206 12.9012 2.36347 12.9319C2.22771 12.9849 2.08418 13.0066 1.94297 12.9984C1.7922 12.9899 1.65036 12.948 1.52472 12.8801C1.42217 12.8248 1.32807 12.7508 1.24787 12.659C1.1246 12.5185 1.04011 12.343 1.0111 12.1495C1.0038 12.101 1.00013 12.0521 1.00001 12.0034L1 12C1 5.92487 5.92487 1 12 1C18.0751 1 23 5.92513 23 12.0003C23 12.0496 22.9964 12.0992 22.9891 12.1483C22.9604 12.3413 22.8766 12.5162 22.7542 12.6567C22.5825 12.8537 22.3349 12.9828 22.057 12.9984C21.9158 13.0066 21.7723 12.9849 21.6365 12.9319C21.5579 12.9012 21.4842 12.8609 21.4167 12.8124C21.1898 12.6543 20.9402 12.5244 20.6891 12.41C20.2116 12.1924 19.6089 12 18.9999 12C18.391 12 17.7883 12.1924 17.3107 12.41C17.0589 12.5247 16.8091 12.6551 16.5815 12.8135C16.2998 13.0147 15.9336 13.0562 15.6141 12.9226C15.1863 12.7451 14.7468 12.5926 14.305 12.4543C13.8805 12.3215 13.428 12.1962 13 12.1093V19.4002C13 21.3511 11.4696 23.0002 9.5 23.0002C7.5304 23.0002 6 21.3511 6 19.4002C6 18.8479 6.44772 18.4002 7 18.4002C7.55228 18.4002 8 18.8479 8 19.4002C8 20.3211 8.70818 21.0002 9.5 21.0002C10.2918 21.0002 11 20.3211 11 19.4002V12.1149C10.572 12.1991 10.1195 12.3215 9.69497 12.4543C9.25318 12.5926 8.81371 12.7451 8.38589 12.9226C8.06641 13.0562 7.70022 13.0147 7.41854 12.8135C7.19086 12.6551 6.94109 12.5247 6.68929 12.41C6.21171 12.1924 5.60901 12 5.00007 12C4.39114 12 3.78844 12.1924 3.31086 12.41C3.05976 12.5244 2.81025 12.6543 2.58329 12.8124Z" fill="#801ED7"/>
</svg>
